X: 1671
T: The Field Marshal
M:4/4
L:1/8
B:O'Neill's 1671
N:"collected by Cronin"
K:D
A2 \
| d2fdedfd | defd BAFA | BAGB AFDF | Eeedegfe |
| d2fdedfd | defdBAFA | BAGBAFDF | Agfed2 :|
|: AG \
| F2FDEFED | FGFEFAAB | defdedfd | gefdedBA |
| FGFDEFED | FGFEFAAB | defdBAFA | agefd2 :|


